X: 10541
Q: "Slow"
M: C
L: 1/8
K: G
d>edB e>fge | d>BAB G2zd |\
g>fga gfed | e>dg>B d2zd |\
g>fga gfed |
edcB He2 (3(dfa) |\
g>fe>d e>fHg {f2g2f2a2g2f2g} e | d<B TA>B G3G |\
"_Sy."d>edB g>age | d<B TA>B G3 |]


